X:1
T:Hör mein Fleh'n
T:Joseph Heinrich Breitenbach
T:C. Cassel
T:Hör mein Fleh'n
T:CPDL   —   Creative Commons Attribution Non Commercial 3.0
C:Joseph Heinrich Breitenbach
Z:C. Cassel
Z:CPDL   —   Creative Commons Attribution Non Commercial 3.0
%%score [ ( 1 2 ) ( 3 4 ) ]
L:1/8
Q:1/4=72
M:2/4
K:Eb
V:1 treble nm="Sopran\nAlt"
V:2 treble 
V:3 bass nm="Tenor\nBass"
V:4 bass 
V:1
!p!"^Langsam" B2 G2 | !>!G>!>(!F E2!>)! |!<(! e2 B2!<)! | !>!B>!>(!A G2!>)! |!<(! G2 E2!<)! | %5
w: 1.  Va- ter!|hör mein Fleh'n,|komm mir|bei- zu- steh'n,|dei- ne|
w: 2.  Ist doch|dei- ne Treu'|je- den|Mor- gen neu;|Va- ter,|
 F2 dB |!mf! B=A!>(! GA | B2!>)! z2 |:!p! B2!<(! BB!<)! |!>(! B>c!>)! B2 | B2!<(! BB!<)! | %11
w: Lie- be um-|strah- * le _|mich!|Gib mir hie-|nie- * den|Se- gen und|
w: stär- ke und|füh- * re _|mich!|Wollst vor Ge-|fah- * ren|treu mich be-|
!>(! B>e!>)!"^" B2 |!<(! B2 G2!<)! |!f! e2 cA |!>(! G2 B2!>)! | E4 :| %16
w: Frie- * den.|Va- ter,|Va- ter, ich|hoff' auf|dich.|
w: wah- * ren.|||||
V:2
 E2 E2 | D>D E2 | G2 E2 | D>D E2 | E2 E2 | D2 FF | E2 E2 | D2 x2 |: F2 EF | G2 EG | FD EF | G2 E2 | %12
 G2 E2 | E2 EF | E2 D2 | E4 :| %16
V:3
!p! G,2 B,2 | !>!B,>!>(!A, G,2!>)! |!<(! B,2 B,2!<)! | !>!B,>!>(!B, B,2!>)! |!<(! B,2 B,2!<)! | %5
 B,2 B,B, |!mf! C2!>(! C2 | B,2!>)! z2 |:!p! D2!<(! CD!<)! |!>(! E2!>)! B,2 | DB,!<(! CD!<)! | %11
!>(! E>B,!>)! G,2 |!<(! B,2 B,2!<)! |!f! A,2 A,C |!>(! B,2 A,2!>)! | G,4 :| %16
V:4
 E,2 E,2 | B,,>B,, E,2 | E,2 G,2 | F,>B,, E,2 | E,2 G,2 | B,2 B,,D, | F,2 F,2 | B,,2 x2 |: %8
 B,2 B,B, | E,2 G,E, | B,,2 B,B, | E,2 E,2 | E,3 _D, | C,2 A,,A, | B,2 B,,2 | E,4 :| %16

